!!!COM: Robert Franz
!!!CNT: Deutscher
!!!TXO: Deutsche 
!!!OTL: Im Fruhling
!!!OPS: Op. 17
!!!ONM: No. 5
!!!ONB: Original key: a minor
!!!LYR: W. Osterwald
!!!ENC: Brian Bice
!!!YOR: Vocal Album, G. Schirmer, Inc., 1907
!!!ODT: 1860/
!!NB: Vocal melody and text only encoded.
**kern	**silbe
*clefG2	*
*k[b-e-]	*
*M2/4	*
=3	=3
4r	.
8.r	.
{16dd	{Im
=4	=4
8g	Gra-
8a	-se
8b-	lieg'
8f	ich
=5	=5
8.dd	man-
16cc	-che
8b-	Stun-
16a}	-de}
{16g	{und
=6	=6
8.f	son-
16e-	-ne
8d	mich
8g	im
=7	=7
8.f	Fru2h-
16e-	-lings-
8d}	-licht;}
16r	.
{16dd	{die
=8	=8
8g	Au-
8a	-gen
8b-	schwei-
8f	-fen
=9	=9
8d	in
8e	die
8f	Run-
8d}	-de,}
=10	=10
8r	.
{8g	{wa-
4f}	-rum,}
=11	=11
8r	.
{8b-	{wo-
4a}	-hin?}
=12	=12
8.r	.
{16dd	{ich
8.g	weiss
16a	es
=13	=13
4f}	nicht}
8r	.
{8f	{Ein
=14	=14
8.g	Blu2m-
16a	-chen
16bn	pflu2ck'
16cc	ich
16dd	hin
16ee-	und
=15	=15
8dd	wie-
8cc}	-der}
16r	.
{16b-	{und
16a	steck'
16g	es
=16	=16
8.f	tra2u-
16g	-mend
8f	an
8b-	die
=17	=17
4f}	Brust;}
4r	.
=18	=18
{8g	{Horch'
16a	auf
16bn	der
8cc	Vo2-
8dd	-gel
=19	=19
(12ff	su2-
12ee-)	|
12cc	-sse
8dd	Lei-
8b-}	-der,}
=20	=20
8.r	.
{16f	{doch
8b-	fehlt
8b-	zum
=21	=21
8.c	Sin-
16c	-gen
8.d	mir
16d	die
=22	=22
4.e-}	Lust.}
8r	.
=28	=28
4r	.
8.r	.
{16dd	{Und
=29	=29
8g	wenn
8a	die
8b-	Wol-
8f	-ken
=30	=30
8.dd	blau
16cc	und
8b-	blau-
16a}	-er}
{16g	{in
=31	=31
8.f	lich-
16e-	-ter
8d	Won-
8g	-ne
=32	=32
8.f	sich
16e-	ver-
8d}	weh'n}
16r	.
{16dd	{so
=33	=33
8g	u2-
8a	-ber-
8b-	kommt's
8cc	mich
=34	=34
8dd-	fast
8b-	wie
8f	Trau-
16f}	-er}
{16f	{und
=35	=35
8dd-	nim-
8dd-	-mer
16en	weiss
16f	ich's
16gn	zu
16a	ver-
=36	=36
4f}	-steh'n.}
4r	.
=37	=37
4r	.
8r	.
{8cc	{Ein
=38	=38
8f	Imm-
8f}	-chen}
8r	.
{16b-	{summt
16b-	in
=39	=39
(4dd	ste-
8cc)	|
8b-	-tem
=40	=40
8a	Krei-
8a}	-se}
16r	.
{16d	{wie'n
16en	al-
16f	-tes
=41	=41
4g}	Lied}
16r	.
{16en	{in
16f	mei-
16g	-ner
=42	=42
4a}	Na2h',}
16r	.
{16f	{wenn
16g	es
16a	mich
=43	=43
8b-	sta2-
8f}	-che}
8r	.
{16b-	{lei-
16cc	-se,
=44	=44
4dd-	lei-
8b-}	-se}
8r	.
=46	=46
8.r	.
{16f	{viel-
8b-}	-leicht!}
16r	.
{16B-	{ich
=47	=47
8.c	wu2ss-
16c	-te
8.d	dann
16d	mein
=48	=48
4.e-}	Weh!}
8r	.
*-	*-
